X: 4529
T: Boredom Rant
R: reel
M: 4/4
K: Fmajor
d2 S|:cAfA cA dA|cAfA G2 d2|cAfA cAag|fdcA G2 [1 d2:|2 cA||
FAFA cAdA|FAFA G2cA|FAFA BABc|dcBA G2 cA|
FAFA cAdA|FAFA GdcA|FEDA, DFBc|dcBA G2 [1 ASB||2 cA|F8||

